Obsidian/actions/16s/transform-affect-stroke.svg

<svg height="16" viewBox="0 0 16 16" width="16" xmlns="http://www.w3.org/2000/svg"><path d="m2.015625 2v2.0605469h.9707031 9.0429689v2.9589843 1.0273438h1.939453v-1.0273438-5.0195312h-10.9824219zm-.015625 4.0039062v1.03125h.484375 6.5253906v1.4804688.5136719h.96875v-.5136719-2.5117188h-7.4941406zm8.996094 3.0097657v1.9941401h-2.0019534v.998047h2.0019534v1.994141l3.003906-2.492188zm-7.0097659 1.9785161v1.03125h1.0019531v-1.03125zm2.0195313 0v1.03125h.484375 1.0019531.484375v-1.03125h-.484375-1.0019531z" fill="#bebebe"/></svg>

<svg xmlns="http://www.w3.org/2000/svg" width="16" height="16" viewBox="0 0 16 16">
 <defs>
  <style id="current-color-scheme" type="text/css">
   .ColorScheme-Text { color:#bebebe; } .ColorScheme-Highlight { color:#4285f4; }
  </style>
 </defs>
 <path style="fill:currentColor" class="ColorScheme-Text" d="M 2.015625 2 L 2.015625 4.0605469 L 2.9863281 4.0605469 L 12.029297 4.0605469 L 12.029297 7.0195312 L 12.029297 8.046875 L 13.96875 8.046875 L 13.96875 7.0195312 L 13.96875 2 L 2.9863281 2 L 2.015625 2 z M 2 6.0039062 L 2 7.0351562 L 2.484375 7.0351562 L 9.0097656 7.0351562 L 9.0097656 8.515625 L 9.0097656 9.0292969 L 9.9785156 9.0292969 L 9.9785156 8.515625 L 9.9785156 6.0039062 L 2.484375 6.0039062 L 2 6.0039062 z M 10.996094 9.0136719 L 10.996094 11.007812 L 8.9941406 11.007812 L 8.9941406 12.005859 L 10.996094 12.005859 L 10.996094 14 L 14 11.507812 L 10.996094 9.0136719 z M 3.9863281 10.992188 L 3.9863281 12.023438 L 4.9882812 12.023438 L 4.9882812 10.992188 L 3.9863281 10.992188 z M 6.0058594 10.992188 L 6.0058594 12.023438 L 6.4902344 12.023438 L 7.4921875 12.023438 L 7.9765625 12.023438 L 7.9765625 10.992188 L 7.4921875 10.992188 L 6.4902344 10.992188 L 6.0058594 10.992188 z"/>
</svg>
